src/cmd/32/outlinebullet.svg

<?xml version="1.0" encoding="UTF-8" standalone="no"?>
<svg
   xmlns:dc="http://purl.org/dc/elements/1.1/"
   xmlns:cc="http://creativecommons.org/ns#"
   xmlns:rdf="http://www.w3.org/1999/02/22-rdf-syntax-ns#"
   xmlns:svg="http://www.w3.org/2000/svg"
   xmlns="http://www.w3.org/2000/svg"
   xmlns:sodipodi="http://sodipodi.sourceforge.net/DTD/sodipodi-0.dtd"
   xmlns:inkscape="http://www.inkscape.org/namespaces/inkscape"
   viewBox="0 0 32 32"
   version="1.1"
   id="svg4"
   sodipodi:docname="outlinebullet.svg"
   inkscape:version="0.92.4 (5da689c313, 2019-01-14)">
  <metadata
     id="metadata10">
    <rdf:RDF>
      <cc:Work
         rdf:about="">
        <dc:format>image/svg+xml</dc:format>
        <dc:type
           rdf:resource="http://purl.org/dc/dcmitype/StillImage" />
      </cc:Work>
    </rdf:RDF>
  </metadata>
  <defs
     id="defs8" />
  <sodipodi:namedview
     pagecolor="#ffffff"
     bordercolor="#666666"
     borderopacity="1"
     objecttolerance="10"
     gridtolerance="10"
     guidetolerance="10"
     inkscape:pageopacity="0"
     inkscape:pageshadow="2"
     inkscape:window-width="1920"
     inkscape:window-height="1011"
     id="namedview6"
     showgrid="true"
     inkscape:zoom="29.5"
     inkscape:cx="19.190102"
     inkscape:cy="17.748184"
     inkscape:window-x="0"
     inkscape:window-y="32"
     inkscape:window-maximized="1"
     inkscape:current-layer="svg4">
    <inkscape:grid
       type="xygrid"
       id="grid817" />
  </sodipodi:namedview>
  <path
     d="M 4,4 V 28 H 28 V 4 Z M 5,5 H 27 V 27 H 5 Z M 8.5,7 C 7.6715729,7 7,7.6715729 7,8.5 7,9.3284271 7.6715729,10 8.5,10 9.3284271,10 10,9.3284271 10,8.5 10,7.6715729 9.3284271,7 8.5,7 Z M 12,7 V 8 H 25 V 7 Z m 0,3 v 1 H 25 V 10 Z M 8.5,14 C 7.6715729,14 7,14.671573 7,15.5 7,16.328427 7.6715729,17 8.5,17 9.3284271,17 10,16.328427 10,15.5 10,14.671573 9.3284271,14 8.5,14 Z m 3.5,0 v 1 h 13 v -1 z m 0,3 v 1 H 25 V 17 Z M 8.5,21 C 7.6715729,21 7,21.671573 7,22.5 7,23.328427 7.6715729,24 8.5,24 9.3284271,24 10,23.328427 10,22.5 10,21.671573 9.3284271,21 8.5,21 Z m 3.5,0 v 1 h 13 v -1 z m 0,3 v 1 h 13 v -1 z"
     id="path2"
     inkscape:connector-curvature="0"
     style="fill:#232629"
     sodipodi:nodetypes="ccccccccccsssssccccccccccsssssccccccccccssssscccccccccc" />
</svg>

<svg viewBox="0 0 32 32" xmlns="http://www.w3.org/2000/svg"><path d="m4 4v24h24v-24zm1 1h22v22h-22zm3.5 2a1.5 1.5 0 0 0 -1.5 1.5 1.5 1.5 0 0 0 1.5 1.5 1.5 1.5 0 0 0 1.5-1.5 1.5 1.5 0 0 0 -1.5-1.5zm3.5 0v1h13v-1zm0 3v1h9v-1zm-3.5 4a1.5 1.5 0 0 0 -1.5 1.5 1.5 1.5 0 0 0 1.5 1.5 1.5 1.5 0 0 0 1.5-1.5 1.5 1.5 0 0 0 -1.5-1.5zm3.5 0v1h13v-1zm0 3v1h8v-1zm10 0v1h3v-1zm-13.5 4a1.5 1.5 0 0 0 -1.5 1.5 1.5 1.5 0 0 0 1.5 1.5 1.5 1.5 0 0 0 1.5-1.5 1.5 1.5 0 0 0 -1.5-1.5zm3.5 0v1h13v-1zm0 3v1h5v-1zm11 1v1h2v-1z" fill="#232629"/></svg>
